assets/regular/buildings.svg

<svg id="Flat" xmlns="http://www.w3.org/2000/svg" viewBox="0 0 256 256">
  <path d="M240,207.98316h-8.00586v-104a16.01833,16.01833,0,0,0-16-16h-64v-48a16.01833,16.01833,0,0,0-16-16h-96a16.01833,16.01833,0,0,0-16,16v168H16a8,8,0,0,0,0,16H240a8,8,0,0,0,0-16Zm-24.00586-104v104h-64v-104Zm-176-64h96v168h-96Zm16,32a8.00008,8.00008,0,0,1,8-8h32a8,8,0,1,1,0,16h-32A8.00009,8.00009,0,0,1,55.99414,71.98316Zm64,64a8.00009,8.00009,0,0,1-8,8h-32a8,8,0,0,1,0-16h32A8.00008,8.00008,0,0,1,119.99414,135.98316Zm-16,40a8.00009,8.00009,0,0,1-8,8h-32a8,8,0,0,1,0-16h32A8.00008,8.00008,0,0,1,103.99414,175.98316Zm96,0a8.00009,8.00009,0,0,1-8,8h-16a8,8,0,0,1,0-16h16A8.00008,8.00008,0,0,1,199.99414,175.98316Zm-32-40a8.00008,8.00008,0,0,1,8-8h16a8,8,0,1,1,0,16h-16A8.00009,8.00009,0,0,1,167.99414,135.98316Z"/>
</svg>

<svg xmlns="http://www.w3.org/2000/svg" viewBox="0 0 256 256"><path d="M240,208h-8V104a16,16,0,0,0-16-16H152V40a16,16,0,0,0-16-16H40A16,16,0,0,0,24,40V208H16a8,8,0,0,0,0,16H240a8,8,0,0,0,0-16ZM216,104V208H152V104ZM40,40h96V208H40ZM56,72a8,8,0,0,1,8-8H96a8,8,0,0,1,0,16H64A8,8,0,0,1,56,72Zm64,64a8,8,0,0,1-8,8H80a8,8,0,0,1,0-16h32A8,8,0,0,1,120,136Zm-16,40a8,8,0,0,1-8,8H64a8,8,0,0,1,0-16H96A8,8,0,0,1,104,176Zm96,0a8,8,0,0,1-8,8H176a8,8,0,0,1,0-16h16A8,8,0,0,1,200,176Zm-32-40a8,8,0,0,1,8-8h16a8,8,0,0,1,0,16H176A8,8,0,0,1,168,136Z"/></svg>
